X:1
T:Chariot, 11.12.11.12
T:J. Williams
T:Chariot, 11.12.11.12
T:Public Domain
C:J. Williams
Z:Public Domain
%%score ( 1 2 ) ( 3 4 )
L:1/8
M:4/4
K:D
V:1 treble 
V:2 treble 
V:3 bass 
V:4 bass 
V:1
 [FA]2 | [FA]4 [FA]2 z [Af] | [Af]4 [Af]2 z [Ad] | [Ae]4 [Ad]2 [Ac]2 | [Ad]4 [FA]3 [Ff] | %5
 [Fd]4 [Ae]2 [Ae]2 | [Af]4 [Ae]2 [Ae]2 | [Fd]4 [Ec]2 [DB]2 | [CA]4 [FA]3 [Fd] | [FA]4 [Af]2 [Ge]2 | %10
 [Fd]4 F2 [EG]2 | [DA]4 [Fd]2 [FB]2 | [FA]4 [FA]3 [Fd] | [Ff]4 [Fd]2 [Ae]2 | [Fd]4 [FA]2 [Bg]2 | %15
 [Af]4 [Ae]2 (e>d) | [Fd]6 |] %17
V:2
 x2 | x8 | x8 | x8 | x8 | x8 | x8 | x8 | x8 | x8 | x4 F2 x2 | x8 | x8 | x8 | x8 | x6 G2 | x6 |] %17
V:3
 [B,,D]2 | [B,,D]4 [B,,D]2 z [A,D] | [A,D]4 [A,D]2 z [D,D] | [A,E]4 [A,,F]2 [A,,E]2 | %4
 [D,F]4 [D,D]3 [D,B,] | [D,A,]4 [A,C]2 [A,C]2 | D4 [A,C]2 A,2 | [D,A,]4 [E,A,]2 [E,^G,]2 | %8
 A,4 [D,D]3 [D,D] | [D,D]4 [D,D]2 [E,B,]2 | [F,A,]4 [F,A,]2 [E,B,]2 | [D,D]4 [B,,F]2 [B,,D]2 | %12
 [B,,D]4 A,3 A, | [A,D]4 A,2 [A,C]2 | [B,D]4 [F,D]2 [G,D]2 | (C3 B,) [A,,A,]2 [A,,A,]2 | [D,D]6 |] %17
V:4
 x2 | x8 | x8 | x8 | x8 | x8 | D4 A,2 x2 | x8 | A,4 x4 | x8 | x8 | x8 | x4 A,3 A, | x4 A,2 x2 | %14
 x8 | A,4 x4 | x6 |] %17

